X: 32828
T: Poppy's
R: jig
M: 6/8
K: Aminor
E|ABc dBG|cBA G2 E|AEE BEE|cBA G2 E|
ABc dBG|cde f2 e|cBA GA^F|GE^F E2:|
Aee ede|^fga gfe|dcB ABG|AG^F E2 E|Aee ede|
^fge dcB|cBA AGA|^FED E3|cde fga|gec d2 G|
cBc def|gfe d2 G|Aee ede|^fga gfe|dcB ABG|A6||

